X: 23183
T: Le Reel Du Nord
R: reel
M: 4/4
K: Bminor
|:FBBB FBBB|FBdB c2c2|FBBB FBBB|fedc B2B2|
FBBB FBBB|FBdB c2c2|FBBB FBBB|fedc B2B2:|
K: Dmaj
|:Acec Acec|dcdf aaa2|Acec Acec|dead A2A2|
Acec Acec|dcdf aaa2|Acec Acec|dfaf d2d2:|

